actions/symbolic/system-shutdown-symbolic.svg

<?xml version="1.0" encoding="UTF-8" standalone="no"?>
<svg
   xmlns:dc="http://purl.org/dc/elements/1.1/"
   xmlns:cc="http://creativecommons.org/ns#"
   xmlns:rdf="http://www.w3.org/1999/02/22-rdf-syntax-ns#"
   xmlns:svg="http://www.w3.org/2000/svg"
   xmlns="http://www.w3.org/2000/svg"
   xmlns:sodipodi="http://sodipodi.sourceforge.net/DTD/sodipodi-0.dtd"
   xmlns:inkscape="http://www.inkscape.org/namespaces/inkscape"
   viewBox="0 0 16 16"
   id="svg3371"
   version="1.1"
   inkscape:version="0.91 r13725"
   sodipodi:docname="system-shutdown-symbolic.svg">
  <metadata
     id="metadata3379">
    <rdf:RDF>
      <cc:Work
         rdf:about="">
        <dc:format>image/svg+xml</dc:format>
        <dc:type
           rdf:resource="http://purl.org/dc/dcmitype/StillImage" />
      </cc:Work>
    </rdf:RDF>
  </metadata>
  <sodipodi:namedview
     pagecolor="#ffffff"
     bordercolor="#666666"
     borderopacity="1"
     objecttolerance="10"
     gridtolerance="10"
     guidetolerance="10"
     inkscape:pageopacity="0"
     inkscape:pageshadow="2"
     inkscape:window-width="640"
     inkscape:window-height="480"
     id="namedview3377"
     showgrid="false"
     inkscape:zoom="39.8125"
     inkscape:cx="3.0769231"
     inkscape:cy="8"
     inkscape:current-layer="svg3371" />
  <defs
     id="defs3051">
    <style
       type="text/css"
       id="current-color-scheme">
      .ColorScheme-Text {
        color:#bebebe;
      }
      </style>
  </defs>
  <path
     style="color:#bebebe;fill:currentColor;fill-opacity:1;stroke:none"
     class="ColorScheme-Text"
     d="M 7.9994102,2 C 7.4915586,2 7.0826279,2.4116128 7.0826279,2.9227867 l 0,4.6175383 c 0,0.511174 0.4089307,0.9227867 0.9167823,0.9227867 0.5078515,0 0.9167821,-0.4116127 0.9167821,-0.9227867 l 0,-4.6175383 C 8.9161923,2.4116128 8.5072617,2 7.9994102,2 Z m 2.6948388,1.8383642 a 0.91687396,0.92287901 0 0 0 -0.497785,1.6689463 c 1.263207,0.9511034 1.779518,2.5988663 1.287435,4.107482 C 10.991825,11.123409 9.605521,12.141896 8.0280595,12.154259 6.4505982,12.166624 5.0481871,11.169583 4.5328272,9.6688625 4.0174672,8.1681418 4.5092636,6.5123419 5.7575909,5.5415545 A 0.91687396,0.92287901 0 1 0 4.6366813,4.0816771 C 2.7710478,5.5325193 2.0311191,8.0298103 2.8013262,10.272639 c 0.7701981,2.242828 2.8835342,3.74567 5.2410581,3.727193 2.3575147,-0.01847 4.4483537,-1.555471 5.1837587,-3.8101 0.735416,-2.2546289 -0.04419,-4.7388965 -1.932047,-6.1603221 A 0.91687396,0.92287901 0 0 0 10.694249,3.8383642 Z"
     id="path3375"
     inkscape:connector-curvature="0" />
</svg>

<svg xmlns="http://www.w3.org/2000/svg" viewBox="0 0 16 16">
  <path fill="#bebebe" d="M8 2a.918.918 0 0 0-.917.923V7.54a.918.918 0 1 0 1.833 0V2.923A.918.918 0 0 0 8 2zm2.694 1.838a.917.923 0 0 0-.498 1.67 3.699 3.699 0 0 1 1.288 4.107 3.663 3.663 0 0 1-3.456 2.54 3.663 3.663 0 0 1-3.495-2.486 3.7 3.7 0 0 1 1.225-4.127.917.923 0 1 0-1.121-1.46 5.566 5.566 0 0 0-1.836 6.19A5.508 5.508 0 0 0 8.042 14a5.512 5.512 0 0 0 5.184-3.81 5.564 5.564 0 0 0-1.932-6.16.917.923 0 0 0-.6-.192z"/>
</svg>
